X: 1670
T: Annwyl Ioan
R: reel
M: 4/4
K: Gmajor
|:zE|DG G/G/G DGBG|d/e/d cA BG G/G/G|AF F/F/F AFcA|BGAF GFE^D|
DG G/G/G DG B/A/G|dGcA BG G/G/G|cA A/A/A FE D/E/F|G/A/G FA G2:|
|:B/c/d|gGfG eG B/[A/c/][Gd]|gGce dg g/g/g|ec c/c/c dB B/B/B|c/B/A BG A^c d/e/f|
gGf[Gg] eg g/g/g|dG G/G/G dg g/g/g|eGce dg g/g/g|c/B/A FA G2:|

